X: 15675
T: Gold Ring, The
R: jig
M: 6/8
K: Gmajor
d|cAG G3|cAF G2d|cAG GFG|cAG F2d|
cAG G3|cAG A2G|FAd (3gfed|cAF G2:|
|:d|cAd cAd|cAF G2d|cAd c3|cAG F2d|
cAd c2d|cAG A2G|FAd (3gfed|cAF G2:|
|:d|gdg gdc|BGG Gde|(=f3 ^f)dc|AFF F2d|
gdg gdc|BGG Gde|(=f3 ^f)ed|cAF G2:|
|:d|gdd fdd|Gdd Fdd|gdd fdd|cAF GBd|
gdd fdd|Gdd Fdd|f/g/ag fed|cAF G2:|
|:A|Gdd Gdd|cAG G2A|B2G ABG|cAG FGA|
B2G A2F|G2D FGA|f/g/ag fed|cAF G2:|

